X: 13966
T: Frances Keegan
R: reel
M: 4/4
K: Amajor
|E2AE F2DF|EAcA eAce|abae f2af|e2ce faaf|
a3e fd~d2|eAcA BAFA|dcde fbaf|1 ecBd cBAF:|2 ecBd cAce||
|:a3e fecf|eAce fB~B2|cBce fecf|eaae fece|
acea fAdf|eAcA BAFA|dcde fbaf|1 ecBd cA~A2:|2 ecBd cBAF||

